usr/share/icons/big-icons/symbolic/actions/lang-struct-symbolic.svg

<svg width="16px" height="16px" version="1.1" viewBox="0 0 16 16" xmlns="http://www.w3.org/2000/svg">
 <path d="m8 4c-2.2091 0-4 1.7909-4 4v0.5h6.9531c-0.24367 1.4416-1.4911 2.4976-2.9531 2.5h-2v1h2c2.2091 0 4-1.7909 4-4v-0.5h-6.9531c0.24367-1.4416 1.4911-2.4976 2.9531-2.5h2v-1z" fill="#363636" fill-rule="evenodd" stop-color="#000000" stroke-width="1.1547"/>
 <path d="m8.7071 0.22183c-0.39174-0.39174-1.0225-0.39174-1.4142 0l-7.0711 7.0711c-0.39174 0.39174-0.39174 1.0225 0 1.4142l7.0711 7.0711c0.39174 0.39174 1.0225 0.39174 1.4142 0l7.0711-7.0711c0.39174-0.39174 0.39174-1.0225 0-1.4142zm-0.70711 0.70711 7.0711 7.0711-7.0711 7.0711-7.0711-7.0711z" fill="#363636"/>
</svg>

<svg xmlns="http://www.w3.org/2000/svg" width="16" height="16">
<path fill="#fcfcfc" fill-rule="evenodd" d="M8 4a4 4 0 0 0-4 4v.5h6.953A3 3 0 0 1 8 11H6v1h2a4 4 0 0 0 4-4v-.5H5.047A3 3 0 0 1 8 5h2V4z"/>
<path fill="#fcfcfc" d="M8.707.222a1 1 0 0 0-1.414 0L.222 7.292a1 1 0 0 0 0 1.415l7.07 7.071a1 1 0 0 0 1.415 0l7.071-7.07a1 1 0 0 0 0-1.415zM8 .929 15.071 8 8 15.071.929 8z"/>
</svg>
